apps/scalable/gnome-software.svg

<svg height="48" width="48" xmlns="http://www.w3.org/2000/svg" xmlns:xlink="http://www.w3.org/1999/xlink"><linearGradient id="a" x1="0" x2="0" y1="1" y2="0"><stop offset="0" stop-color="#ececec"/><stop offset="1" stop-color="#fff"/></linearGradient><linearGradient id="b" x1="0" x2="1" y1="0" y2="0"><stop offset="0" stop-color="#d9d9d9"/><stop offset="1" stop-color="#eee"/></linearGradient><linearGradient id="c" x1="0" x2="1" xlink:href="#a" y1="0" y2="0"/><linearGradient id="d" x1="1" x2="0" xlink:href="#a" y1="0" y2="0"/><linearGradient id="e" x1="1" x2="0" xlink:href="#b" y1="0" y2="0"/><linearGradient id="f" x1="0" x2="1" xlink:href="#b" y1="0" y2="0"/><linearGradient id="g" x1="0" x2="0" y1="1" y2="0"><stop offset="0" stop-color="#e6e6e6"/><stop offset="1" stop-color="#fff"/></linearGradient><clipPath id="h"><path d="m2 9h44v37h-44z"/></clipPath><path d="m4 3h40v10h-40z" fill="url(#b)"/><path d="m4 3v27l3.5-24.5z" fill="url(#f)"/><path d="m44 3v5l-3.5-2.5z" fill="url(#e)"/><path d="m7.5 5.5 7.7 5.5h-11.2z" opacity=".08"/><rect clip-path="url(#h)" fill="url(#a)" height="40" rx="3" width="44" x="2" y="6"/><path d="m46 9h-5.5v-3.5z" fill="url(#d)"/><path d="m7.5 5.5-5.5 3.5h5.5z" fill="url(#c)"/><circle cx="14" cy="14" opacity=".3" r="2"/><circle cx="34" cy="14" opacity=".3" r="2"/><path d="m34 13a10 10 0 1 0 -20 0" fill="none" stroke="url(#g)" stroke-linecap="round" stroke-width="2.4"/><path d="m29.802734 18.873047c-3.760887 0-4.465318 5.355469-2.349609 5.355469 2.115404 0 6.11065-5.355469 2.349609-5.355469zm-5.998046.667969c-2.116473.274706-1.373046 3.954645-.246094 4.023437 1.126492.06879 2.363333-4.298143.246094-4.023437zm-3.546876 1.449218c-.092813.009851-.192526.034262-.298828.078125-1.701128.701976-.259626 3.601006.69336 3.40625.894141-.182296.997667-3.632136-.394532-3.484375zm-2.642578 2.265625c-.147904-.004977-.308219.044515-.478515.16211-1.361759.940909.458577 3.213845 1.259765 2.861328.701039-.308584.25408-2.988594-.78125-3.023438zm7.775391 1.740235c-2.91943-.04939-6.769017 1.414265-7.425781 4.355468-.7113 3.182891 2.927338 7.59961 6.724609 7.59961 1.868061 0 4.022664-1.687414 4.425781-3.824219.307878-1.629433-3.623672-.976624-3.482422.101563.169226 1.292355-.946778 1.930793-2.041015 1.097656-3.483431-2.652128 5.767998-3.974351 5.158203-7.597656-.189806-1.127831-1.607717-1.702788-3.359375-1.732422z" opacity=".8"/></svg>

<svg xmlns="http://www.w3.org/2000/svg" xmlns:xlink="http://www.w3.org/1999/xlink" version="1.1" width="48" height="48">
	<defs>
		<linearGradient id="frontGrad" x1="0" y1="1" x2="0" y2="0">
			<stop stop-color="#ECECEC" offset="0" />
			<stop stop-color="#FFF" offset="1" />
		</linearGradient>
		<linearGradient id="backGrad" x1="0" y1="0" x2="1" y2="0">
			<stop stop-color="#D9D9D9" offset="0" />
			<stop stop-color="#EEE" offset="1" />
		</linearGradient>
		<linearGradient id="leftfrontfoldGrad" xlink:href="#frontGrad" x1="0" y1="0" x2="1" y2="0" />
		<linearGradient id="rightfrontfoldGrad" xlink:href="#frontGrad" x1="1" y1="0" x2="0" y2="0" />
		<linearGradient id="rightbackfoldGrad" xlink:href="#backGrad" x1="1" y1="0" x2="0" y2="0" />
		<linearGradient id="leftbackfoldGrad" xlink:href="#backGrad" x1="0" y1="0" x2="1" y2="0" />
		<linearGradient id="handleGrad" x1="0" y1="1" x2="0" y2="0">
			<stop stop-color="#E6E6E6" offset="0" />
			<stop stop-color="#FFF" offset="1" />
		</linearGradient>
		<clipPath id="frontClip">
			<rect x="2" y="9" width="44" height="37" />
		</clipPath>
	</defs>

	<rect id="back" x="4" y="3" width="40" height="10" fill="url(#backGrad)" />
	<polygon id="leftbackfold" fill="url(#leftbackfoldGrad)" points="4,3 4,30 7.5,5.5" />
	<polygon id="rightbackfold" fill="url(#rightbackfoldGrad)" points="44,3 44,8 40.5,5.5" />
	<polygon id="shadow" points="7.5,5.5 15.2,11 4,11" fill="#000" opacity="0.08"  />
	<rect id="frontnew" fill="url(#frontGrad)" x="2" y="6" width="44" height="40" rx="3" clip-path="url(#frontClip)" />
	<polygon id="rightfrontfold" points="46,9 40.5,9 40.5,5.5" fill="url(#rightfrontfoldGrad)" />
	<polygon id="leftfrontfold" points="7.5,5.5 2,9 7.5,9" fill="url(#leftfrontfoldGrad)" />
	<circle class="hole" cx="14" cy="14" r="2" fill="#000" opacity="0.3" />
	<circle class="hole" cx="34" cy="14" r="2" fill="#000" opacity="0.3" />
	<path id="handle" d="M 34,13 a 10,10 0 1,0 -20,0" fill="none" stroke="url(#handleGrad)" stroke-width="2.4" stroke-linecap="round"  />
	<path id="symbol" d="M 29.802734 18.873047 C 26.041847 18.873047 25.337416 24.228516 27.453125 24.228516 C 29.568529 24.228516 33.563775 18.873047 29.802734 18.873047 z M 23.804688 19.541016 C 21.688215 19.815722 22.431642 23.495661 23.558594 23.564453 C 24.685086 23.633243 25.921927 19.26631 23.804688 19.541016 z M 20.257812 20.990234 C 20.164999 21.000085 20.065286 21.024496 19.958984 21.068359 C 18.257856 21.770335 19.699358 24.669365 20.652344 24.474609 C 21.546485 24.292313 21.650011 20.842473 20.257812 20.990234 z M 17.615234 23.255859 C 17.46733 23.250882 17.307015 23.300374 17.136719 23.417969 C 15.77496 24.358878 17.595296 26.631814 18.396484 26.279297 C 19.097523 25.970713 18.650564 23.290703 17.615234 23.255859 z M 25.390625 24.996094 C 22.471195 24.946704 18.621608 26.410359 17.964844 29.351562 C 17.253544 32.534453 20.892182 36.951172 24.689453 36.951172 C 26.557514 36.951172 28.712117 35.263758 29.115234 33.126953 C 29.423112 31.49752 25.491562 32.150329 25.632812 33.228516 C 25.802038 34.520871 24.686034 35.159309 23.591797 34.326172 C 20.108366 31.674044 29.359795 30.351821 28.75 26.728516 C 28.560194 25.600685 27.142283 25.025728 25.390625 24.996094 z " fill="#000" opacity="0.8" />
</svg>
